X:173
T:Bird, The
M:6/8
L:1/8
B:Thompson's Compleat Collection of 200 Favourite Country Dances, vol. 3 (London, 1773)
Z:Transcribed and edited by Flynn Titford-Mock, 2007
Z:abc's:AK/Fiddler's Companion
K:D
A/G/ | FAd ceg | fag fed | ceg fec | dBA GFE | FAd ceg | fa^g aec | fdB ecA | dB^G A2 :|
|: A | Ace =gfe | dcB ^A2F | Bba gfe | d2c B2c | dfd gec | Bed c2G | FAd ceg | afc d3 :|

